;FLAVOR:Marlin
;TIME:12158
;Filament used: 9.69076m
;Layer height: 0.2
;MINX:122.737
;MINY:128.66
;MINZ:0.2
;MAXX:225.655
;MAXY:233.085
;MAXZ:30
;TARGET_MACHINE.NAME:Creality Ender-5 Plus
;Generated with Cura_SteamEngine 5.6.0
M140 S60
M105
M190 S60
M104 S200
M105
M109 S200
M82 ;absolute extrusion mode
M201 X500.00 Y500.00 Z100.00 E5000.00 ;Setup machine max acceleration
M203 X500.00 Y500.00 Z10.00 E50.00 ;Setup machine max feedrate
M204 P500.00 R1000.00 T500.00 ;Setup Print/Retract/Travel acceleration
M205 X8.00 Y8.00 Z0.40 E5.00 ;Setup Jerk
M220 S100 ;Reset Feedrate
M221 S100 ;Reset Flowrate

G28 ;Home
M420 S1 Z2 ;Enable ABL using saved Mesh and Fade Height

G92 E0 ;Reset Extruder
G1 Z2.0 F3000 ;Move Z Axis up
G1 X10.1 Y20 Z0.28 F5000.0 ;Move to start position
G1 X10.1 Y200.0 Z0.28 F1500.0 E15 ;Draw the first line
G1 X10.4 Y200.0 Z0.28 F5000.0 ;Move to side a little
G1 X10.4 Y20 Z0.28 F1500.0 E30 ;Draw the second line
G92 E0 ;Reset Extruder
G1 Z2.0 F3000 ;Move Z Axis up

G92 E0
G92 E0
G1 F1500 E-6.5
;LAYER_COUNT:150
;LAYER:0
M107
G0 F6000 X128.563 Y133.145 Z0.2
;TYPE:SKIRT
G1 F1500 E0
G1 F1200 X129.031 Y132.725 E0.02091
G1 X129.654 Y132.198 E0.04806
G1 X130.684 Y131.429 E0.09081
G1 X131.362 Y131 E0.11749
G1 X131.87 Y130.703 E0.13707
G1 X132.895 Y130.174 E0.17543
G1 X133.533 Y129.897 E0.19856
G1 X134.084 Y129.679 E0.21827
G1 X135.192 Y129.31 E0.25711
G1 X135.942 Y129.117 E0.28287
G1 X136.496 Y128.992 E0.30176
G1 X137.639 Y128.802 E0.3403
G1 X138.483 Y128.723 E0.36849
G1 X139.143 Y128.683 E0.39049
G1 X139.774 Y128.665 E0.41148
G1 X208.957 Y128.66 E2.71252
G1 X209.833 Y128.671 E2.74165
G1 X210.583 Y128.704 E2.76662
G1 X211.508 Y128.785 E2.79751
G1 X212.634 Y128.955 E2.83538
G1 X213.42 Y129.129 E2.86216
G1 X213.964 Y129.27 E2.88085
G1 X215.107 Y129.634 E2.92075
G1 X215.802 Y129.91 E2.94562
G1 X216.322 Y130.134 E2.96445
G1 X217.364 Y130.656 E3.00321
G1 X218.007 Y131.035 E3.02804
G1 X218.505 Y131.351 E3.04765
G1 X219.445 Y132.021 E3.08605
G1 X220.055 Y132.525 E3.11237
G1 X220.505 Y132.924 E3.13237
G1 X221.315 Y133.723 E3.17021
G1 X221.816 Y134.291 E3.1954
G1 X222.19 Y134.743 E3.21491
G1 X222.839 Y135.616 E3.2511
G1 X223.294 Y136.327 E3.27917
G1 X223.53 Y136.728 E3.29465
G1 X224.139 Y137.924 E3.33929
G1 X224.505 Y138.767 E3.36985
G1 X224.827 Y139.61 E3.39987
G1 X225.014 Y140.227 E3.42131
G1 X225.197 Y140.937 E3.4457
G1 X225.323 Y141.496 E3.46476
G1 X225.515 Y142.654 E3.5038
G1 X225.59 Y143.449 E3.53036
G1 X225.643 Y144.45 E3.5637
G1 X225.655 Y145.186 E3.58818
G1 X225.654 Y174.11 E4.55019
G1 X225.644 Y174.837 E4.57438
G1 X225.614 Y175.54 E4.59778
G1 X225.532 Y176.509 E4.63012
G1 X225.36 Y177.649 E4.66847
G1 X225.196 Y178.389 E4.69368
G1 X225.05 Y178.963 E4.71338
G1 X224.445 Y181.488 E4.79974
G1 X223.929 Y183.952 E4.88347
G1 X223.476 Y186.462 E4.9683
G1 X223.103 Y188.938 E5.05158
G1 X222.796 Y191.431 E5.13513
G1 X222.559 Y193.953 E5.21938
G1 X222.399 Y196.416 E5.30147
G1 X222.303 Y198.999 E5.38744
G1 X222.28 Y201.004 E5.45413
G1 X222.28 Y210.789 E5.77958
G1 X222.317 Y213.36 E5.8651
G1 X222.422 Y215.868 E5.94859
G1 X222.663 Y219.163 E6.05848
G1 X222.687 Y220.137 E6.09088
G1 X222.627 Y221.109 E6.12327
G1 X222.493 Y222.002 E6.15331
G1 X222.28 Y222.905 E6.18416
G1 X222.17 Y223.296 E6.19767
G1 X221.874 Y224.187 E6.2289
G1 X221.473 Y225.114 E6.26249
G1 X221.001 Y225.979 E6.29527
G1 X220.292 Y227.013 E6.33697
G1 X219.459 Y228.081 E6.38202
G1 X219.016 Y228.627 E6.4054
G1 X218.382 Y229.341 E6.43716
G1 X218.077 Y229.655 E6.45172
G1 X217.367 Y230.321 E6.4841
G1 X216.601 Y230.923 E6.5165
G1 X215.784 Y231.454 E6.54891
G1 X214.924 Y231.91 E6.58129
G1 X214.032 Y232.288 E6.61351
G1 X213.28 Y232.537 E6.63986
G1 X212.871 Y232.656 E6.65402
G1 X211.924 Y232.884 E6.68642
G1 X210.952 Y233.027 E6.7191
G1 X209.768 Y233.085 E6.75852
G1 X207.575 Y233.064 E6.83147
G1 X138.402 Y233.065 E9.13217
G1 X137.402 Y233.049 E9.16544
G1 X136.863 Y233.025 E9.18338
G1 X135.561 Y232.936 E9.22679
G1 X134.39 Y232.836 E9.26588
G1 X133.454 Y232.713 E9.29727
G1 X132.252 Y232.433 E9.33832
G1 X131.891 Y232.326 E9.35085
G1 X130.954 Y232.001 E9.38383
G1 X130.066 Y231.604 E9.41618
G1 X129.215 Y231.128 E9.44862
G1 X128.412 Y230.579 E9.48097
G1 X127.668 Y229.97 E9.51295
G1 X127.246 Y229.571 E9.53226
G1 X126.931 Y229.254 E9.54713
G1 X126.275 Y228.534 E9.57952
G1 X125.726 Y227.817 E9.60956
G1 X125.168 Y226.933 E9.64433
G1 X124.724 Y226.066 E9.67673
G1 X124.384 Y225.23 E9.70674
G1 X124.173 Y224.581 E9.72944
G1 X124.058 Y224.186 E9.74313
G1 X123.871 Y223.44 E9.76871
G1 X123.597 Y222.16 E9.81224
G1 X123.403 Y221.162 E9.84606
G1 X123.236 Y219.928 E9.88747
G1 X123.189 Y219.333 E9.90733
G1 X123.159 Y218.7 E9.9284
G1 X123.147 Y217.965 E9.95285
G1 X123.146 Y196.243 E10.67533
G1 X123.109 Y193.647 E10.76168
G1 X123.001 Y191.116 E10.84594
G1 X122.763 Y187.823 E10.95575
G1 X122.737 Y186.92 E10.9858
G1 X122.821 Y185.691 E11.02677
G1 X122.956 Y184.615 E11.06284
G1 X123.243 Y182.029 E11.14938
G1 X123.45 Y179.544 E11.23231
G1 X123.58 Y177.094 E11.31392
G1 X123.655 Y173.368 E11.43787
G1 X123.657 Y145.168 E12.3758
G1 X123.674 Y144.309 E12.40438
G1 X123.713 Y143.571 E12.42896
G1 X123.775 Y142.865 E12.45253
G1 X123.957 Y141.64 E12.49372
G1 X124.12 Y140.906 E12.51873
G1 X124.248 Y140.405 E12.53593
G1 X124.623 Y139.225 E12.57711
G1 X124.923 Y138.47 E12.60413
G1 X125.15 Y137.951 E12.62297
G1 X125.572 Y137.09 E12.65486
G1 X125.843 Y136.624 E12.67279
G1 X126.261 Y135.945 E12.69931
G1 X126.797 Y135.154 E12.73109
G1 X127.094 Y134.772 E12.74719
G1 X127.506 Y134.28 E12.76853
G1 X127.916 Y133.816 E12.78913
G1 X128.563 Y133.145 E12.82013
G0 F6000 X128.851 Y133.423
G1 F1200 X129.289 Y133.03 E12.8397
G1 X129.893 Y132.519 E12.86602
G1 X130.923 Y131.75 E12.90877
G1 X131.564 Y131.345 E12.93399
G1 X132.054 Y131.058 E12.95287
G1 X133.054 Y130.541 E12.99032
G1 X133.681 Y130.269 E13.01305
G1 X134.21 Y130.059 E13.03198
G1 X135.318 Y129.69 E13.07082
G1 X136.03 Y129.507 E13.09527
G1 X136.562 Y129.387 E13.11341
G1 X137.705 Y129.197 E13.15195
G1 X138.507 Y129.122 E13.17874
G1 X139.155 Y129.083 E13.20033
G1 X139.774 Y129.065 E13.22093
G1 X208.952 Y129.06 E15.5218
G1 X209.815 Y129.071 E15.5505
G1 X210.565 Y129.104 E15.57547
G1 X211.448 Y129.181 E15.60495
G1 X212.574 Y129.351 E15.64283
G1 X213.32 Y129.516 E15.66824
G1 X213.843 Y129.651 E15.6862
G1 X214.96 Y130.006 E15.72519
G1 X215.644 Y130.277 E15.74966
G1 X216.143 Y130.492 E15.76773
G1 X217.185 Y131.014 E15.80649
G1 X217.793 Y131.373 E15.82998
G1 X218.273 Y131.677 E15.84887
G1 X219.19 Y132.33 E15.88632
G1 X219.79 Y132.825 E15.91219
G1 X220.224 Y133.209 E15.93146
G1 X221.034 Y134.008 E15.9693
G1 X221.508 Y134.546 E15.99315
G1 X221.869 Y134.982 E16.01198
G1 X222.518 Y135.855 E16.04816
G1 X222.949 Y136.53 E16.0748
G1 X223.185 Y136.931 E16.09027
G1 X223.772 Y138.083 E16.13327
G1 X224.131 Y138.91 E16.16326
G1 X224.453 Y139.753 E16.19327
G1 X224.627 Y140.327 E16.21322
G1 X224.807 Y141.025 E16.2372
G1 X224.928 Y141.561 E16.25548
G1 X225.12 Y142.719 E16.29452
G1 X225.191 Y143.47 E16.31961
G1 X225.243 Y144.457 E16.35248
G1 X225.255 Y145.186 E16.37673
G1 X225.254 Y174.104 E17.33855
G1 X225.244 Y174.82 E17.36236
G1 X225.215 Y175.507 E17.38523
G1 X225.136 Y176.45 E17.41671
G1 X224.969 Y177.563 E17.45414
G1 X224.808 Y178.29 E17.47891
G1 X224.662 Y178.864 E17.4986
G1 X224.053 Y181.406 E17.58554
G1 X223.537 Y183.87 E17.66928
G1 X223.082 Y186.391 E17.75448
G1 X222.707 Y188.878 E17.83813
G1 X222.399 Y191.382 E17.92204
G1 X222.161 Y193.916 E18.00669
G1 X221.999 Y196.401 E18.08952
G1 X221.903 Y198.984 E18.17549
G1 X221.88 Y200.999 E18.24252
G1 X221.88 Y210.789 E18.56813
G1 X221.917 Y213.377 E18.65422
G1 X222.023 Y215.897 E18.73811
G1 X222.263 Y219.174 E18.84739
G1 X222.288 Y220.113 E18.87864
G1 X222.231 Y221.05 E18.90986
G1 X222.097 Y221.943 E18.93989
G1 X221.895 Y222.797 E18.96908
G1 X221.79 Y223.17 E18.98197
G1 X221.494 Y224.061 E19.0132
G1 X221.122 Y224.923 E19.04442
G1 X220.671 Y225.753 E19.07584
G1 X219.962 Y226.787 E19.11754
G1 X219.148 Y227.829 E19.16152
G1 X218.717 Y228.361 E19.18429
G1 X218.094 Y229.063 E19.21551
G1 X217.803 Y229.364 E19.22943
G1 X217.12 Y230.007 E19.26063
G1 X216.382 Y230.588 E19.29187
G1 X215.596 Y231.101 E19.32309
G1 X214.768 Y231.542 E19.35429
G1 X213.906 Y231.908 E19.38544
G1 X213.168 Y232.153 E19.4113
G1 X212.777 Y232.267 E19.42485
G1 X211.865 Y232.488 E19.45606
G1 X210.932 Y232.627 E19.48743
G1 X209.748 Y232.685 E19.52686
G1 X207.579 Y232.664 E19.59901
G1 X138.408 Y232.665 E21.89964
G1 X137.419 Y232.649 E21.93254
G1 X136.89 Y232.626 E21.95015
G1 X135.595 Y232.537 E21.99333
G1 X134.442 Y232.439 E22.03181
G1 X133.506 Y232.316 E22.06321
G1 X132.366 Y232.049 E22.10215
G1 X132.005 Y231.942 E22.11468
G1 X131.117 Y231.636 E22.14592
G1 X130.261 Y231.254 E22.17709
G1 X129.44 Y230.797 E22.20835
G1 X128.665 Y230.269 E22.23954
G1 X127.943 Y229.679 E22.27055
G1 X127.521 Y229.28 E22.28986
G1 X127.226 Y228.984 E22.30376
G1 X126.593 Y228.291 E22.33498
G1 X126.044 Y227.574 E22.36502
G1 X125.524 Y226.75 E22.39742
G1 X125.095 Y225.915 E22.42865
G1 X124.755 Y225.079 E22.45866
G1 X124.557 Y224.469 E22.47999
G1 X124.446 Y224.088 E22.49319
G1 X124.262 Y223.356 E22.5183
G1 X123.99 Y222.084 E22.56156
G1 X123.796 Y221.086 E22.59538
G1 X123.635 Y219.896 E22.63532
G1 X123.589 Y219.314 E22.65473
G1 X123.559 Y218.693 E22.67541
G1 X123.547 Y217.965 E22.69963
G1 X123.546 Y196.243 E23.42211
G1 X123.509 Y193.641 E23.50866
G1 X123.401 Y191.099 E23.59328
G1 X123.163 Y187.811 E23.70293
G1 X123.137 Y186.908 E23.73297
G1 X123.218 Y185.741 E23.77188
G1 X123.353 Y184.665 E23.80795
G1 X123.641 Y182.073 E23.89469
G1 X123.848 Y179.577 E23.97799
G1 X123.98 Y177.102 E24.06043
G1 X124.055 Y173.376 E24.18438
G1 X124.057 Y145.176 E25.12232
G1 X124.073 Y144.33 E25.15046
G1 X124.111 Y143.606 E25.17457
G1 X124.171 Y142.924 E25.19734
G1 X124.348 Y141.727 E25.23759
G1 X124.508 Y141.005 E25.26219
G1 X124.636 Y140.504 E25.27938
G1 X124.995 Y139.372 E25.31888
G1 X125.289 Y138.63 E25.34543
G1 X125.509 Y138.127 E25.36369
G1 X125.918 Y137.291 E25.39464
G1 X126.184 Y136.833 E25.41226
G1 X126.592 Y136.169 E25.43818
G1 X127.113 Y135.399 E25.4691
G1 X127.4 Y135.029 E25.48468
G1 X127.806 Y134.545 E25.50569
G1 X128.204 Y134.094 E25.52569
G1 X128.851 Y133.423 E25.5567
G0 F6000 X129.118 Y133.721
G1 F1200 X129.548 Y133.335 E25.57592
G1 X130.133 Y132.839 E25.60142
G1 X131.137 Y132.088 E25.64313
G1 X131.767 Y131.69 E25.66791
G1 X132.238 Y131.413 E25.68609
G1 X133.213 Y130.908 E25.72261
G1 X133.829 Y130.641 E25.74494
G1 X134.336 Y130.439 E25.76309
G1 X135.444 Y130.07 E25.80193
G1 X136.118 Y129.897 E25.82507
G1 X136.628 Y129.782 E25.84246
G1 X137.771 Y129.592 E25.881
G1 X138.531 Y129.521 E25.90639
G1 X139.167 Y129.483 E25.92758
G1 X139.774 Y129.465 E25.94778
G1 X208.947 Y129.46 E28.24848
G1 X209.798 Y129.471 E28.27679
G1 X210.531 Y129.503 E28.30119
G1 X211.389 Y129.577 E28.32983
G1 X212.488 Y129.742 E28.3668
G1 X213.234 Y129.907 E28.39221
G1 X213.722 Y130.032 E28.40896
G1 X214.813 Y130.378 E28.44703
G1 X215.486 Y130.644 E28.4711
G1 X215.964 Y130.85 E28.48841
G1 X217.006 Y131.372 E28.52717
G1 X217.579 Y131.711 E28.54932
G1 X218.041 Y132.003 E28.5675
G1 X218.958 Y132.656 E28.60494
G1 X219.525 Y133.125 E28.62941
G1 X219.943 Y133.494 E28.64796
G1 X220.734 Y134.273 E28.68488
G1 X221.2 Y134.801 E28.7083
G1 X221.548 Y135.221 E28.72645
G1 X222.181 Y136.071 E28.7617
G1 X222.605 Y136.734 E28.78787
G1 X222.829 Y137.113 E28.80251
G1 X223.405 Y138.242 E28.84467
G1 X223.757 Y139.053 E28.87407
G1 X224.079 Y139.896 E28.90409
G1 X224.24 Y140.427 E28.92254
G1 X224.417 Y141.113 E28.94611
G1 X224.533 Y141.626 E28.9636
G1 X224.725 Y142.784 E29.00264
G1 X224.792 Y143.491 E29.02626
G1 X224.843 Y144.464 E29.05867
G1 X224.855 Y145.186 E29.08268
G1 X224.854 Y174.098 E30.0443
G1 X224.844 Y174.803 E30.06775
G1 X224.816 Y175.474 E30.09009
G1 X224.74 Y176.391 E30.12069
G1 X224.573 Y177.504 E30.15813
G1 X224.42 Y178.191 E30.18154
G1 X224.274 Y178.765 E30.20124
G1 X223.664 Y181.313 E30.28838
G1 X223.143 Y183.799 E30.37286
G1 X222.688 Y186.32 E30.45806
G1 X222.311 Y188.818 E30.54209
G1 X222.002 Y191.333 E30.62636
G1 X221.763 Y193.879 E30.71142
G1 X221.599 Y196.386 E30.79498
G1 X221.503 Y198.969 E30.88095
G1 X221.48 Y200.994 E30.9483
G1 X221.48 Y210.789 E31.27409
G1 X221.517 Y213.394 E31.36074
G1 X221.624 Y215.926 E31.44503
G1 X221.863 Y219.186 E31.55375
G1 X221.889 Y220.089 E31.58379
G1 X221.835 Y220.991 E31.61385
G1 X221.701 Y221.884 E31.64388
G1 X221.51 Y222.689 E31.6714
G1 X221.41 Y223.045 E31.6837
G1 X221.127 Y223.903 E31.71375
G1 X220.77 Y224.733 E31.7438
G1 X220.341 Y225.527 E31.77382
G1 X219.632 Y226.561 E31.81552
G1 X218.837 Y227.577 E31.85842
G1 X218.406 Y228.109 E31.8812
G1 X217.807 Y228.785 E31.91124
G1 X217.528 Y229.073 E31.92457
G1 X216.872 Y229.693 E31.95459
G1 X216.163 Y230.253 E31.98464
G1 X215.407 Y230.748 E32.0147
G1 X214.611 Y231.174 E32.04473
G1 X213.78 Y231.528 E32.07477
G1 X213.056 Y231.769 E32.10015
G1 X212.682 Y231.878 E32.11311
G1 X211.805 Y232.092 E32.14313
G1 X210.912 Y232.227 E32.17317
G1 X209.728 Y232.285 E32.2126
G1 X207.583 Y232.264 E32.28394
G1 X138.415 Y232.265 E34.58448
G1 X137.436 Y232.249 E34.61705
G1 X136.918 Y232.227 E34.63429
G1 X135.629 Y232.138 E34.67727
G1 X134.493 Y232.042 E34.71518
G1 X133.597 Y231.926 E34.74523
G1 X132.479 Y231.665 E34.78342
G1 X132.135 Y231.564 E34.79534
G1 X131.28 Y231.271 E34.8254
G1 X130.455 Y230.904 E34.85544
G1 X129.665 Y230.466 E34.88548
G1 X128.918 Y229.959 E34.91551
G1 X128.218 Y229.388 E34.94555
G1 X127.796 Y228.989 E34.96487
G1 X127.521 Y228.714 E34.9778
G1 X126.911 Y228.048 E35.00784
G1 X126.362 Y227.331 E35.03788
G1 X125.88 Y226.567 E35.06792
G1 X125.466 Y225.764 E35.09797
G1 X125.126 Y224.928 E35.12799
G1 X124.941 Y224.357 E35.14795
G1 X124.834 Y223.99 E35.16067
G1 X124.653 Y223.273 E35.18526
G1 X124.383 Y222.008 E35.22828
G1 X124.189 Y221.01 E35.2621
G1 X124.034 Y219.865 E35.30053
G1 X123.989 Y219.294 E35.31958
G1 X123.959 Y218.686 E35.33983
G1 X123.947 Y217.965 E35.36381
G1 X123.946 Y196.243 E36.08629
G1 X123.909 Y193.635 E36.17304
G1 X123.801 Y191.082 E36.25803
G1 X123.563 Y187.799 E36.36751
G1 X123.537 Y186.896 E36.39755
G1 X123.615 Y185.791 E36.4344
G1 X123.75 Y184.715 E36.47047
G1 X124.039 Y182.117 E36.55741
G1 X124.246 Y179.61 E36.64108
G1 X124.38 Y177.11 E36.72435
G1 X124.455 Y173.384 E36.8483
G1 X124.457 Y145.183 E37.78627
G1 X124.472 Y144.351 E37.81394
G1 X124.509 Y143.641 E37.83759
G1 X124.567 Y142.982 E37.85959
G1 X124.739 Y141.813 E37.89889
G1 X124.896 Y141.104 E37.92305
G1 X125.024 Y140.603 E37.94024
G1 X125.367 Y139.519 E37.97806
G1 X125.656 Y138.79 E38.00414
G1 X125.868 Y138.303 E38.02181
G1 X126.264 Y137.492 E38.05183
G1 X126.525 Y137.042 E38.06913
G1 X126.923 Y136.393 E38.09445
G1 X127.429 Y135.644 E38.12451
G1 X127.707 Y135.286 E38.13959
G1 X128.106 Y134.809 E38.16027
G1 X128.492 Y134.371 E38.17969
G1 X129.118 Y133.721 E38.20971
G1 F1500 E31.70971
G0 F6000 X134.059 Y175.546
G0 X135.334 Y185.183
G1 F1500 E38.20971
G1 F1200 X135.593 Y185.11 E38.21866
G1 X135.852 Y185.183 E38.22761
G1 X136.045 Y185.386 E38.23692
G1 X136.116 Y185.633 E38.24547
G1 X136.044 Y185.894 E38.25448
G1 X135.854 Y186.084 E38.26341
G1 X135.592 Y186.156 E38.27245
G1 X135.347 Y186.084 E38.28094
G1 X135.142 Y185.879 E38.29059
G1 X135.069 Y185.631 E38.29918
G1 X135.139 Y185.387 E38.30763
G1 X135.334 Y185.183 E38.31701
G0 F6000 X135.547 Y185.539
G1 F1200 X135.593 Y185.526 E38.3186
G1 X135.639 Y185.539 E38.32019
G1 X135.688 Y185.591 E38.32257
G1 X135.701 Y185.636 E38.32413
G1 X135.687 Y185.685 E38.32582
G1 X135.645 Y185.727 E38.3278
G1 X135.597 Y185.74 E38.32945
G1 X135.558 Y185.729 E38.3308
G1 X135.497 Y185.668 E38.33367
G1 X135.486 Y185.63 E38.33498
G1 X135.498 Y185.59 E38.33637
G1 X135.547 Y185.539 E38.33873
G0 F6000 X134.717 Y186.616
G1 F1200 X134.91 Y186.819 E38.34804
G1 X134.981 Y187.066 E38.35659
G1 X134.909 Y187.327 E38.3656
G1 X134.719 Y187.517 E38.37453
G1 X134.457 Y187.589 E38.38357
G1 X134.212 Y187.517 E38.39206
G1 X134.007 Y187.312 E38.40171
G1 X133.934 Y187.064 E38.4103
G1 X134.004 Y186.82 E38.41875
G1 X134.199 Y186.616 E38.42813
G1 X134.458 Y186.543 E38.43708
